X: 3
T: Greig's Pipes
R: reel
M: 4/4
L: 1/8
K: Amin
|:Bc d2 BA G2|G2 GA BG e2|e2 dc BG B2| A2 A2 Ae d2|B2 g2 fg e2|ed B2 AB G2|AB BA GF G2|G2 G2 G2 D2|||:B2 cd d2 BA| G2 G2 GA BG|e2 e2 dc BG|B2 A2 A2 Ae|d2 B2 g2 fg|e2 ed B2 AB|G2 AB BA GF|G2 G2 G2 D2||Bc/B/ AG d2 d2|ed ce d2 ga|bd gb ag fd|dc Bc A2 Ae|d2 B2 ga/g/ fg|e2 ed B2 AB|G2 AB BA GF|G2 G2 G2 D2||


Tune 605	Setting 22923

